icons/purgatory/icon_card-samsungpay_xl_black.svg

<?xml version="1.0" encoding="UTF-8"?>
<svg width="36px" height="36px" viewBox="0 0 36 36" version="1.1" xmlns="http://www.w3.org/2000/svg" xmlns:xlink="http://www.w3.org/1999/xlink">
    <!-- Generator: Sketch 47.1 (45422) - http://www.bohemiancoding.com/sketch -->
    <title>icon_card-samsungpay_xl_black</title>
    <desc>Created with Sketch.</desc>
    <defs></defs>
    <g id="October-2017" stroke="none" stroke-width="1" fill="none" fill-rule="evenodd" opacity="0.300000012">
        <g id="icon_card-samsungpay_xl_black">
            <g>
                <rect id="_ph_" x="0" y="0" width="36" height="36"></rect>
                <path d="M22.7954033,25.959247 L23.793768,23.5928614 L21.503558,18.4549096 L22.7501436,18.4549096 L24.377547,22.312259 L25.8783646,18.4549096 L27.1321989,18.4549096 L24.0191823,25.959247 L22.7954033,25.959247 Z M17.0288265,19.8711446 C16.7194343,20.206747 16.5679204,20.6784337 16.5679204,21.2092169 C16.5679204,21.6935542 16.7194343,22.145 17.0385503,22.4771687 C17.3168265,22.765241 17.6824398,22.9522892 18.1330917,22.9522892 C18.578263,22.9522892 18.9594343,22.8340964 19.2677657,22.4968675 C19.5775116,22.1605422 19.6941967,21.6633735 19.6941967,21.1535542 C19.6941967,20.6748193 19.5730917,20.1951807 19.2583956,19.8577711 C18.9477657,19.5326506 18.5733127,19.3974699 18.1421083,19.3974699 C17.6790807,19.3974699 17.2954343,19.5821687 17.0288265,19.8711446 M19.6268376,23.9263855 L19.6268376,23.3585542 C19.496716,23.5900602 19.1351691,23.8022289 18.8779315,23.8873494 C18.6152133,23.9807831 18.3351691,24.0256024 18.0501746,24.0256024 C17.6548597,24.0256024 17.3537768,23.9543976 17.0302409,23.8145181 C16.7082961,23.6733735 16.4148155,23.4648193 16.1572243,23.1881325 C15.9121856,22.9324096 15.7214232,22.625 15.5895337,22.2763855 C15.4518099,21.926506 15.3814453,21.5654217 15.3814453,21.1971084 C15.3814453,20.3948795 15.6586608,19.7177108 16.1832133,19.1605422 C16.7519646,18.5576506 17.4501304,18.3321084 18.105158,18.3321084 C18.3678762,18.3321084 18.6272354,18.3756627 18.8779315,18.4607831 C19.128274,18.5464458 19.4463293,18.7372892 19.6096884,19.0063855 L19.6096884,18.4548193 L20.7908597,18.4548193 L20.7908597,23.9263855 L19.6268376,23.9263855 Z M28.3708464,14.9829699 L28.3100287,11.3294759 L29.4381613,11.3294759 L29.4381613,15.9393554 L27.8162387,15.9393554 L26.6930564,12.1548373 L26.6640619,12.1548373 L26.7282387,15.9393554 L25.6098298,15.9393554 L25.6098298,11.3294759 L27.2984044,11.3294759 L28.3462718,14.9829699 L28.3708464,14.9829699 Z M7.88181215,11.7585482 L7.2598453,15.9815 L6.03023204,15.9815 L6.87319337,11.3293313 L8.90086188,11.3293313 L9.74258564,15.9815 L8.51686188,15.9815 L7.90903867,11.7585482 L7.88181215,11.7585482 Z M13.1911956,14.8882892 L13.7544663,11.329494 L15.6097591,11.329494 L15.7115934,15.9814819 L14.5717923,15.9814819 L14.5399691,11.7982892 L14.5178696,11.7982892 L13.756411,15.9814819 L12.6038807,15.9814819 L11.8395934,11.7982892 L11.8141348,11.7982892 L11.7858475,15.9814819 L10.647284,15.9814819 L10.7508862,11.329494 L12.607947,11.329494 L13.168389,14.8882892 L13.1911956,14.8882892 Z M22.7385989,15.2837108 C23.0587757,15.2837108 23.1540685,15.0621446 23.1772287,14.9499157 C23.1865989,14.9000361 23.1865989,14.8317229 23.1865989,14.7717229 L23.1865989,11.329494 L24.3426652,11.329494 L24.3426652,14.6649157 C24.3426652,14.7518434 24.3334718,14.9260602 24.3297591,14.972506 C24.2517923,15.8417831 23.5764331,16.121 22.7385989,16.121 C21.9023558,16.121 21.230179,15.8417831 21.1530961,14.972506 C21.1472619,14.9260602 21.1389525,14.7518434 21.1417812,14.6649157 L21.1417812,11.329494 L22.293958,11.329494 L22.293958,14.7717229 C22.2900685,14.8317229 22.295726,14.9000361 22.3029746,14.9499157 C22.3247204,15.0621446 22.423726,15.2837108 22.7385989,15.2837108 Z M4.11359116,14.6684759 C3.87845304,14.0668494 2.26041989,13.7939578 2.06117127,12.8402831 C2.01661878,12.6067892 2.02103867,12.4211867 2.0521547,12.2157048 C2.17290608,11.4557651 2.83535912,11.1807048 3.64331492,11.1807048 C4.28897238,11.1807048 5.18125967,11.3390181 5.18125967,12.3539578 L5.18125967,12.6807048 L4.04481768,12.6807048 L4.04481768,12.3891988 C4.04481768,12.1407048 3.88888398,11.9695602 3.61944751,11.9695602 C3.3360442,11.9695602 3.23686188,12.1316687 3.2039779,12.2840181 C3.19089503,12.3360663 3.18718232,12.431488 3.20928177,12.527994 C3.33834254,13.0737771 5.06758011,13.3600422 5.25922652,14.3370301 C5.27796685,14.4351627 5.31827624,14.6981145 5.26205525,15.1016687 C5.15544751,15.8769699 4.47832044,16.1632349 3.65091713,16.1632349 C2.79699448,16.1632349 2,15.8516687 2,14.8121506 L2,14.4530542 L3.21882873,14.4530542 L3.22236464,14.9045 C3.22236464,15.1591386 3.39297238,15.3275723 3.67672928,15.3275723 C3.98346961,15.3275723 4.08601105,15.1681747 4.12260773,15.0129337 C4.144,14.926006 4.15637569,14.7814277 4.11359116,14.6684759 Z M18.9170387,14.6627289 C18.6850829,14.0643554 17.0838453,13.793994 16.8883094,12.8495361 C16.8382762,12.6147771 16.8428729,12.4315241 16.8794696,12.2292952 C16.9958011,11.4736928 17.6529503,11.2064036 18.4554254,11.2064036 C19.0910055,11.2064036 19.9730387,11.3634518 19.9730387,12.3662831 L19.9730387,12.6890542 L18.8500331,12.6890542 L18.8500331,12.4020663 C18.8500331,12.1546566 18.6960442,11.9892952 18.4294365,11.9892952 C18.1472707,11.9892952 18.0482652,12.1508614 18.0178564,12.2983313 C18.0081326,12.348753 18.0022983,12.4465241 18.023337,12.5367048 C18.1493923,13.0795964 19.8597127,13.3647771 20.0495912,14.3276687 C20.0702762,14.428512 20.1100552,14.6891145 20.0554254,15.0863434 C19.9477569,15.8553193 19.2761105,16.1381506 18.4642652,16.1381506 C17.6156464,16.1381506 16.8241326,15.8325482 16.8241326,14.8027892 L16.8241326,14.4445964 L18.0344751,14.4445964 L18.0344751,14.892247 C18.0344751,15.1447169 18.2047293,15.3100783 18.487779,15.3100783 C18.7865635,15.3100783 18.8914033,15.1548373 18.9260552,15.0023072 C18.943558,14.9151988 18.9626519,14.7729699 18.9170387,14.6627289 Z M32.2365171,15.2368494 C32.5642961,15.2368494 32.680274,15.0268494 32.7013127,14.8999819 C32.7085613,14.8475723 32.7117436,14.781247 32.7113901,14.7223313 L32.7113901,14.0491386 L32.2462409,14.0491386 L32.2462409,13.3667289 L33.8580862,13.3667289 L33.8580862,14.6167892 C33.8580862,14.7038976 33.8545503,14.7680542 33.841821,14.9243795 C33.7661525,15.7667289 33.0465945,16.0732349 32.2382851,16.0732349 C31.4329812,16.0732349 30.7167823,15.7667289 30.6428818,14.9243795 C30.6250254,14.7680542 30.6250254,14.7038976 30.6250254,14.6167892 L30.6250254,12.6595602 C30.6250254,12.5757048 30.6342188,12.4289578 30.6460641,12.3537771 C30.7448928,11.4790783 31.4329812,11.2031145 32.2382851,11.2031145 C33.0465945,11.2031145 33.7569591,11.4761867 33.8377547,12.3537771 C33.8545503,12.4974518 33.8464177,12.6595602 33.8464177,12.6595602 L33.8490696,12.811006 L32.7013127,12.811006 L32.7013127,12.5511265 C32.7013127,12.5511265 32.7013127,12.4390783 32.6854011,12.3729337 C32.6661304,12.2733554 32.577379,12.0373313 32.2292685,12.0373313 C31.9025503,12.0373313 31.8035448,12.2608855 31.7775558,12.3729337 C31.7634122,12.4352831 31.7607602,12.5185964 31.7607602,12.5943193 L31.7607602,14.7223313 C31.7607602,14.781247 31.7634122,14.8475723 31.768716,14.8999819 C31.7911691,15.0268494 31.9057326,15.2368494 32.2365171,15.2368494 Z M11.9270541,19.3974518 C11.4954961,19.3974518 11.1198055,19.5348012 10.8112972,19.857753 C10.4957171,20.1944398 10.3731978,20.6748012 10.3731978,21.1535361 C10.3731978,21.6633554 10.492358,22.1605241 10.7996287,22.4968494 C11.1093746,22.8340783 11.4916066,22.9522711 11.9357171,22.9522711 C12.3863691,22.9522711 12.7523359,22.7652229 13.0309657,22.4771506 C13.3500818,22.1449819 13.5015956,21.6937169 13.5015956,21.2091988 C13.5015956,20.6784157 13.3486674,20.2069096 13.0392751,19.8711265 C12.7733746,19.5821506 12.389021,19.3974518 11.9270541,19.3974518 M9.27794917,25.9593193 L9.27794917,18.4548012 L10.4608884,18.4548012 L10.4608884,19.0063675 C10.6242475,18.7372711 10.9415956,18.5464277 11.1908773,18.4598614 C11.4412199,18.3756446 11.700579,18.3320904 11.9650652,18.3320904 C12.6186785,18.3320904 13.3171978,18.5576325 13.8848884,19.1605241 C14.4087337,19.7176928 14.6859492,20.3950422 14.6859492,21.1970904 C14.6859492,21.5654036 14.6169989,21.9279337 14.4798055,22.2756446 C14.347032,22.6249819 14.1562696,22.9325723 13.9122917,23.1884759 C13.654347,23.4648012 13.3606895,23.6733554 13.0378608,23.8145 C12.7157392,23.9543795 12.4143028,24.0255843 12.0189878,24.0255843 C11.7313414,24.0255843 11.4539492,23.9807651 11.1915845,23.8873313 C10.9336398,23.8022108 10.5720928,23.5900422 10.4416177,23.3585361 L10.4416177,25.9593193 L9.27794917,25.9593193" id="Samsung-Pay" fill="#0B1F35"></path>
            </g>
        </g>
    </g>
</svg>

<svg width="36" height="36" viewBox="0 0 36 36" xmlns="http://www.w3.org/2000/svg">
  <g fill="none" fill-rule="evenodd" opacity=".3">
    <path d="M0 0h36v36H0z"/>
    <path d="M22.795 25.96l1-2.367-2.29-5.138h1.245l1.628 3.857 1.5-3.857h1.254L24.02 25.96h-1.225zm-5.766-6.09c-.31.337-.462.808-.462 1.34 0 .484.15.935.47 1.267.28.288.644.475 1.095.475.445 0 .826-.118 1.135-.455.31-.336.426-.834.426-1.343 0-.48-.12-.96-.436-1.296-.31-.325-.685-.46-1.116-.46-.463 0-.847.184-1.113.473m2.597 4.056v-.567c-.13.23-.492.442-.75.527-.262.094-.542.14-.827.14-.395 0-.696-.073-1.02-.212-.322-.142-.615-.35-.873-.627-.245-.256-.436-.563-.567-.912-.138-.35-.21-.71-.21-1.08 0-.8.28-1.478.803-2.035.57-.602 1.267-.828 1.922-.828.263 0 .522.044.773.13.25.084.568.275.732.544v-.55h1.18v5.47h-1.163zm8.744-8.943l-.06-3.654h1.128v4.61h-1.622l-1.123-3.785h-.03l.065 3.784H25.61v-4.61h1.688l1.048 3.653h.025zM7.883 11.76L7.26 15.98H6.03l.843-4.653H8.9l.843 4.652H8.517L7.91 11.76H7.88zm5.31 3.128l.562-3.56h1.856l.102 4.653h-1.14L14.54 11.8h-.022l-.762 4.183h-1.152L11.84 11.8h-.026l-.028 4.183h-1.14l.105-4.65h1.858l.56 3.558h.023zm9.547.396c.32 0 .414-.222.437-.334.01-.05.01-.118.01-.178V11.33h1.156v3.335c0 .087-.01.26-.013.308-.078.87-.754 1.148-1.59 1.148-.838 0-1.51-.278-1.587-1.147-.006-.047-.014-.22-.01-.308V11.33h1.15v3.442c-.003.06.003.128.01.178.022.112.12.334.436.334zm-18.626-.616c-.236-.6-1.854-.874-2.053-1.828-.043-.233-.04-.42-.008-.624.12-.76.783-1.035 1.59-1.035.647 0 1.54.16 1.54 1.174v.327H4.044v-.29c0-.25-.156-.42-.426-.42-.284 0-.383.162-.416.314-.013.052-.017.147.005.244.128.546 1.858.832 2.05 1.81.018.097.058.36.002.764-.107.775-.784 1.06-1.61 1.06-.855 0-1.652-.31-1.652-1.35v-.36h1.22l.002.453c0 .254.17.423.455.423.306 0 .41-.16.446-.315.02-.087.033-.232-.01-.345zm14.803-.005c-.232-.6-1.833-.87-2.03-1.813-.05-.235-.044-.418-.008-.62.116-.756.773-1.024 1.575-1.024.636 0 1.518.157 1.518 1.16v.323H18.85V12.4c0-.247-.154-.413-.42-.413-.283 0-.382.16-.412.308-.01.05-.016.15.005.24.126.542 1.837.827 2.027 1.79.02.1.06.36.005.758-.107.77-.78 1.052-1.59 1.052-.85 0-1.64-.305-1.64-1.335v-.358h1.21v.447c0 .253.17.418.453.418.3 0 .403-.155.438-.308.018-.087.037-.23-.01-.34zm13.32.574c.327 0 .443-.21.464-.337.01-.052.012-.12.01-.178v-.673h-.464v-.683h1.612v1.25c0 .087-.003.15-.016.307-.076.843-.795 1.15-1.604 1.15-.805 0-1.52-.307-1.595-1.15-.018-.156-.018-.22-.018-.307V12.66c0-.084.01-.23.02-.306.1-.875.788-1.15 1.593-1.15.81 0 1.52.272 1.6 1.15.017.143.008.306.008.306l.003.15H32.7v-.26s0-.11-.015-.177c-.02-.1-.108-.336-.456-.336-.327 0-.426.224-.452.336-.015.062-.017.146-.017.22v2.13c0 .058.003.125.01.177.02.127.136.337.467.337zm-20.31 4.16c-.432 0-.807.138-1.116.46-.314.337-.437.818-.437 1.297 0 .51.12 1.007.427 1.343.31.337.692.455 1.136.455.45 0 .816-.187 1.095-.475.32-.332.472-.783.472-1.268 0-.532-.153-1.003-.463-1.34-.267-.288-.65-.473-1.113-.473m-2.65 6.562v-7.505h1.184v.55c.164-.268.482-.46.73-.545.25-.084.51-.128.775-.128.654 0 1.352.226 1.92.83.524.556.8 1.233.8 2.035 0 .368-.068.73-.205 1.08-.133.348-.324.656-.568.91-.258.278-.55.486-.874.627-.322.14-.624.212-1.02.212-.287 0-.564-.045-.826-.14-.258-.084-.62-.296-.75-.527v2.6H9.278" fill="#0B1F35"/>
  </g>
</svg>
